X: 19340
T: Jack Of All Trades
R: polka
M: 2/4
K: Amajor
e>d|:cA A/B/A/G/|EA A2|GA Bc|df ed|
cA A/B/A/G/|EA A2|Be dB|1 A2 e>d:|2 A2 c>d||
|:ea ag|ef =g>f|ed BA|GA E2|
cB/c/ dc/d/|ea fd|c/d/e dB|1 A2 c>d:|2 A2 e>d||

